<?xml version='1.0' encoding='UTF-8'?>
<map version="1.10" tiledversion="1.12.2" orientation="orthogonal" renderorder="right-down" width="30" height="18" tilewidth="64" tileheight="64" infinite="0" nextlayerid="4" nextobjectid="2329">
  <tileset firstgid="1" name="world_tiles" tilewidth="64" tileheight="64" tilecount="6" columns="6">
    <image source="../world/world_tiles.png" width="384" height="64" />
  </tileset>
  <layer id="1" name="Ground" width="30" height="18">
    <data encoding="csv">6,6,6,6,6,6,6,6,6,6,6,6,6,6,6,6,6,6,6,6,6,6,6,6,6,6,6,6,6,6,6,1,1,1,1,1,1,1,1,1,1,1,1,1,1,1,1,1,1,1,1,1,1,1,1,1,1,1,1,6,6,6,6,6,1,1,1,1,1,1,1,1,4,4,1,2,2,2,2,2,2,1,1,1,6,1,6,1,6,6,6,6,6,6,1,5,5,5,5,5,5,1,4,4,1,2,2,2,2,2,2,1,1,1,1,6,1,6,1,6,6,6,6,6,1,5,5,5,5,5,5,1,4,4,1,2,2,2,2,2,2,1,1,1,6,1,6,1,6,6,6,6,6,6,1,5,5,5,5,5,5,1,4,4,1,2,2,2,2,2,2,1,1,1,1,6,1,6,1,6,6,1,1,1,1,5,5,5,5,5,5,1,4,4,1,1,1,1,1,1,1,1,1,1,6,1,6,1,6,6,6,1,1,1,1,1,1,1,1,1,1,1,4,4,1,1,1,1,1,1,1,1,1,1,1,6,1,6,1,6,4,4,4,4,4,4,4,4,4,4,4,4,4,4,4,4,4,4,4,4,4,4,4,4,4,4,4,4,4,4,4,4,4,4,4,4,4,4,4,4,4,4,4,4,4,4,4,4,4,4,4,4,4,4,4,4,4,4,4,4,6,1,1,1,1,1,1,1,1,1,1,1,1,1,1,1,1,1,1,1,4,4,1,1,1,1,1,1,1,6,6,1,6,6,1,6,6,1,1,1,1,1,1,1,1,4,4,4,4,4,4,4,4,1,1,1,1,1,1,6,6,1,6,1,6,6,1,1,1,1,1,1,1,1,1,4,4,4,4,4,4,4,4,1,3,3,3,3,1,6,6,1,1,6,6,1,6,1,1,1,1,1,1,1,1,4,4,4,4,4,4,4,4,1,3,3,3,3,1,6,6,1,6,6,1,6,6,1,1,1,1,1,1,1,1,4,4,4,4,4,4,4,4,1,3,3,3,3,1,6,6,1,6,1,6,6,1,1,1,1,1,1,1,1,1,4,4,4,4,4,4,4,4,1,3,3,3,3,1,6,6,1,1,6,6,1,6,1,1,1,1,1,1,1,1,1,1,1,1,1,1,1,1,1,1,1,1,1,1,6,6,6,6,6,6,6,6,6,6,6,6,6,6,6,6,6,6,6,6,6,6,6,6,6,6,6,6,6,6,6</data>
  </layer>
  <objectgroup id="2" name="World Objects">
    <object id="500" name="Road to Port Felin" type="door" x="46" y="545" width="62" height="52">
      <properties>
        <property name="destination" value="port_felin" />
        <property name="spawn_x" value="2040" type="int" />
        <property name="spawn_y" value="610" type="int" />
        <property name="label" value="Road to Port Felin" />
        <property name="style" value="road" />
      </properties>
    </object>
    <object id="501" name="Bellflower Tollhouse" type="building" x="190" y="400" width="155" height="105">
      <properties>
        <property name="kind" value="vale_tollhouse" />
        <property name="blocking" value="true" />
      </properties>
    </object>
    <object id="502" name="Warden Maribel" type="npc" x="300" y="535" width="48" height="48">
      <properties>
        <property name="kind" value="vale_warden" />
        <property name="sprite" value="3" />
      </properties>
    </object>
    <object id="503" name="Bellflower Lavender" type="resource" x="430" y="300" width="46" height="46">
      <properties>
        <property name="resource" value="lavender" />
      </properties>
    </object>
    <object id="504" name="Field Lavender" type="resource" x="620" y="360" width="46" height="46">
      <properties>
        <property name="resource" value="lavender" />
      </properties>
    </object>
    <object id="505" name="Old Vale Oak" type="resource" x="470" y="760" width="46" height="46">
      <properties>
        <property name="resource" value="old_oak" />
      </properties>
    </object>
    <object id="506" name="Aqueduct Iron Vein" type="resource" x="1040" y="230" width="46" height="46">
      <properties>
        <property name="resource" value="rich_iron" />
      </properties>
    </object>
    <object id="507" name="South Pond Ripples" type="resource" x="1640" y="850" width="46" height="46">
      <properties>
        <property name="resource" value="river_dace" />
      </properties>
    </object>
    <object id="508" name="Vintner Rows" type="resource" x="720" y="240" width="46" height="46">
      <properties>
        <property name="resource" value="grape" />
      </properties>
    </object>
    <object id="509" name="Roadside Rosemary" type="resource" x="900" y="610" width="46" height="46">
      <properties>
        <property name="resource" value="rosemary" />
      </properties>
    </object>
    <object id="510" name="Sable Pikeman" type="enemy" x="980" y="600" width="50" height="50">
      <properties>
        <property name="enemy" value="vale_pikeman" />
        <property name="sprite" value="13" />
      </properties>
    </object>
    <object id="511" name="Sable Pikeman" type="enemy" x="1110" y="690" width="50" height="50">
      <properties>
        <property name="enemy" value="vale_pikeman" />
        <property name="sprite" value="13" />
      </properties>
    </object>
    <object id="512" name="Sable Pikeman" type="enemy" x="1260" y="760" width="50" height="50">
      <properties>
        <property name="enemy" value="vale_pikeman" />
        <property name="sprite" value="13" />
      </properties>
    </object>
    <object id="513" name="Sable Arquebusier" type="enemy" x="1180" y="520" width="50" height="50">
      <properties>
        <property name="enemy" value="vale_arquebusier" />
        <property name="sprite" value="14" />
      </properties>
    </object>
    <object id="514" name="Sable Arquebusier" type="enemy" x="1390" y="820" width="50" height="50">
      <properties>
        <property name="enemy" value="vale_arquebusier" />
        <property name="sprite" value="14" />
      </properties>
    </object>
    <object id="515" name="Captain Vellum" type="enemy" x="1490" y="700" width="50" height="50">
      <properties>
        <property name="enemy" value="vale_captain" />
        <property name="sprite" value="13" />
      </properties>
    </object>
    <object id="516" name="Vale Bristleback" type="enemy" x="760" y="930" width="50" height="50">
      <properties>
        <property name="enemy" value="boar" />
        <property name="sprite" value="6" />
      </properties>
    </object>
    <object id="520" name="Bellflower Road Marker" type="landmark" x="530" y="560" width="36" height="36">
      <properties>
        <property name="kind" value="bellflower_marker" />
      </properties>
    </object>
    <object id="521" name="Old Aqueduct" type="landmark" x="1080" y="260" width="36" height="36">
      <properties>
        <property name="kind" value="vale_ruins" />
      </properties>
    </object>
    <object id="522" name="Sable Company Camp" type="landmark" x="1380" y="710" width="36" height="36">
      <properties>
        <property name="kind" value="vale_camp" />
      </properties>
    </object>
    <object id="523" name="Bellflower Wayshrine" type="landmark" x="840" y="420" width="36" height="36">
      <properties>
        <property name="kind" value="vale_shrine" />
        <property name="waypoint_id" value="bellflower" />
        <property name="waypoint_label" value="Bellflower Vale" />
        <property name="spawn_x" value="858" type="int" />
        <property name="spawn_y" value="480" type="int" />
      </properties>
    </object>
    <object id="524" name="Camp Supply Chest" type="landmark" x="1540" y="760" width="40" height="38">
      <properties>
        <property name="kind" value="vale_chest" />
        <property name="chest_id" value="vale_supply" />
      </properties>
    </object>
    <object id="525" name="East Road Exit" type="door" x="1810" y="545" width="62" height="52">
      <properties>
        <property name="destination" value="port_felin" />
        <property name="spawn_x" value="2040" type="int" />
        <property name="spawn_y" value="610" type="int" />
        <property name="label" value="Eastroad to Port Felin" />
        <property name="style" value="road" />
      </properties>
    </object>
    <object id="530" name="Sable Deserter" type="enemy" x="720" y="555" width="50" height="50">
      <properties>
        <property name="enemy" value="vale_raider" />
        <property name="sprite" value="13" />
        <property name="event_id" value="vale" />
        <property name="contract_id" value="vale_fair_watch" />
      </properties>
    </object>
    <object id="531" name="Sable Deserter" type="enemy" x="860" y="720" width="50" height="50">
      <properties>
        <property name="enemy" value="vale_raider" />
        <property name="sprite" value="13" />
        <property name="event_id" value="vale" />
        <property name="contract_id" value="vale_fair_watch" />
      </properties>
    </object>
    <object id="532" name="Sable Deserter" type="enemy" x="1010" y="890" width="50" height="50">
      <properties>
        <property name="enemy" value="vale_raider" />
        <property name="sprite" value="13" />
        <property name="event_id" value="vale" />
        <property name="contract_id" value="vale_fair_watch" />
      </properties>
    </object>
  </objectgroup>
  <objectgroup id="3" name="Wild Scenery" visible="1">
    <object id="2300" name="West Vale Oak" type="wilderness" x="73" y="82" width="116" height="130">
      <properties>
        <property name="kind" value="oak_canopy" />
      </properties>
    </object>
    <object id="2301" name="West Vale Fern" type="wilderness" x="261" y="175" width="72" height="46">
      <properties>
        <property name="kind" value="fern_bank" />
      </properties>
    </object>
    <object id="2302" name="Tollhouse Wildflowers" type="wilderness" x="140" y="340" width="73" height="42">
      <properties>
        <property name="kind" value="wildflowers" />
      </properties>
    </object>
    <object id="2303" name="Lavender North Cluster" type="wilderness" x="415" y="140" width="93" height="51">
      <properties>
        <property name="kind" value="lavender_cluster" />
      </properties>
    </object>
    <object id="2304" name="Lavender East Cluster" type="wilderness" x="643" y="168" width="93" height="51">
      <properties>
        <property name="kind" value="lavender_cluster" />
      </properties>
    </object>
    <object id="2305" name="Lavender Upper Fern" type="wilderness" x="600" y="300" width="72" height="46">
      <properties>
        <property name="kind" value="fern_bank" />
      </properties>
    </object>
    <object id="2306" name="Vale Orchard Bramble" type="wilderness" x="870" y="150" width="83" height="55">
      <properties>
        <property name="kind" value="bramble" />
      </properties>
    </object>
    <object id="2307" name="Vale Vintner Flowers" type="wilderness" x="739" y="407" width="73" height="42">
      <properties>
        <property name="kind" value="wildflowers" />
      </properties>
    </object>
    <object id="2308" name="Old Road Flowers" type="wilderness" x="500" y="660" width="73" height="42">
      <properties>
        <property name="kind" value="wildflowers" />
      </properties>
    </object>
    <object id="2309" name="Bellflower Southern Oak" type="wilderness" x="166" y="808" width="116" height="130">
      <properties>
        <property name="kind" value="oak_canopy" />
      </properties>
    </object>
    <object id="2310" name="Southern Vale Pine" type="wilderness" x="302" y="874" width="100" height="128">
      <properties>
        <property name="kind" value="pine_bough" />
      </properties>
    </object>
    <object id="2311" name="South Meadow Fern" type="wilderness" x="586" y="840" width="72" height="46">
      <properties>
        <property name="kind" value="fern_bank" />
      </properties>
    </object>
    <object id="2312" name="South Meadow Lavender" type="wilderness" x="610" y="1005" width="93" height="51">
      <properties>
        <property name="kind" value="lavender_cluster" />
      </properties>
    </object>
    <object id="2313" name="South Field Bramble" type="wilderness" x="930" y="936" width="83" height="55">
      <properties>
        <property name="kind" value="bramble" />
      </properties>
    </object>
    <object id="2314" name="Ruins Broken Column" type="wilderness" x="956" y="114" width="93" height="88">
      <properties>
        <property name="kind" value="aqueduct_fragment" />
      </properties>
    </object>
    <object id="2315" name="Ruins Fallen Wall" type="wilderness" x="1193" y="136" width="105" height="60">
      <properties>
        <property name="kind" value="quarry_rubble" />
      </properties>
    </object>
    <object id="2316" name="Aqueduct Boulder" type="wilderness" x="1280" y="271" width="87" height="63">
      <properties>
        <property name="kind" value="moss_boulder" />
      </properties>
    </object>
    <object id="2317" name="Aqueduct Wildflowers" type="wilderness" x="1118" y="413" width="73" height="42">
      <properties>
        <property name="kind" value="wildflowers" />
      </properties>
    </object>
    <object id="2318" name="Old Aqueduct Fern" type="wilderness" x="990" y="452" width="72" height="46">
      <properties>
        <property name="kind" value="fern_bank" />
      </properties>
    </object>
    <object id="2319" name="Sable Camp Scrub" type="wilderness" x="1404" y="625" width="83" height="55">
      <properties>
        <property name="kind" value="bramble" />
      </properties>
    </object>
    <object id="2320" name="Sable Camp Quarry Stone" type="wilderness" x="1508" y="589" width="105" height="60">
      <properties>
        <property name="kind" value="quarry_rubble" />
      </properties>
    </object>
    <object id="2321" name="Sable Camp Road Flowers" type="wilderness" x="1246" y="900" width="73" height="42">
      <properties>
        <property name="kind" value="wildflowers" />
      </properties>
    </object>
    <object id="2322" name="Camp South Boulder" type="wilderness" x="1455" y="1065" width="87" height="63">
      <properties>
        <property name="kind" value="moss_boulder" />
      </properties>
    </object>
    <object id="2323" name="Vale Pond Reeds" type="wilderness" x="1563" y="787" width="76" height="62">
      <properties>
        <property name="kind" value="river_reeds" />
      </properties>
    </object>
    <object id="2324" name="Vale Pond Flowers" type="wilderness" x="1530" y="905" width="73" height="42">
      <properties>
        <property name="kind" value="wildflowers" />
      </properties>
    </object>
    <object id="2325" name="Bellflower Grove Fern" type="wilderness" x="1825" y="197" width="72" height="46">
      <properties>
        <property name="kind" value="fern_bank" />
      </properties>
    </object>
    <object id="2326" name="East Vale Pine" type="wilderness" x="1774" y="170" width="100" height="128">
      <properties>
        <property name="kind" value="pine_bough" />
      </properties>
    </object>
    <object id="2327" name="Vale Far Field Lavender" type="wilderness" x="1650" y="319" width="93" height="51">
      <properties>
        <property name="kind" value="lavender_cluster" />
      </properties>
    </object>
    <object id="2328" name="South East Fern" type="wilderness" x="1792" y="999" width="72" height="46">
      <properties>
        <property name="kind" value="fern_bank" />
      </properties>
    </object>
  </objectgroup>
</map>