<?xml version="1.0" encoding="UTF-8"?>
<map version="1.10" tiledversion="1.12.2" orientation="orthogonal" renderorder="right-down" width="12" height="9" tilewidth="64" tileheight="64" infinite="0" nextlayerid="3" nextobjectid="508">
 <tileset firstgid="1" name="interior_tiles" tilewidth="64" tileheight="64" tilecount="6" columns="6"><image source="../world/interior_tiles.png" width="384" height="64"/></tileset>
 <layer id="1" name="Ground" width="12" height="9"><data encoding="csv">3,3,3,3,3,3,3,3,3,3,3,3,3,1,1,1,1,1,1,1,1,1,1,3,3,1,1,1,4,4,4,4,1,1,1,3,3,1,1,1,4,4,4,4,1,1,1,3,3,1,1,1,4,4,4,4,1,1,1,3,3,1,1,1,1,1,1,1,1,1,1,3,3,1,1,1,1,1,1,1,1,1,1,3,3,1,1,1,1,1,1,1,1,1,1,3,3,3,3,3,3,1,1,3,3,3,3,3</data></layer>
 <objectgroup id="2" name="World Objects">
  <object id="501" name="Aurelia Ledgerpaw" type="npc" x="350" y="218" width="48" height="48"><properties><property name="kind" value="banker"/><property name="sprite" value="4"/><property name="stationary" value="true"/></properties></object>
  <object id="502" name="Guild Vault Chest" type="landmark" x="145" y="154" width="44" height="44"><properties><property name="kind" value="bank_chest"/></properties></object>
  <object id="503" name="Teller Counter" type="obstacle" x="285" y="300" width="200" height="46"><properties><property name="kind" value="counter"/></properties></object>
  <object id="504" name="Vault Rails" type="obstacle" x="535" y="92" width="72" height="205"><properties><property name="kind" value="rack"/></properties></object>
  <object id="505" name="Felin Exchange Door" type="door" x="350" y="505" width="68" height="40"><properties><property name="destination" value="port_felin"/><property name="spawn_x" type="int" value="618"/><property name="spawn_y" type="int" value="355"/><property name="label" value="Port Felin"/></properties></object>
  <object id="506" name="Exchange Ledger" type="landmark" x="555" y="355" width="40" height="40"><properties><property name="kind" value="bank_ledger"/></properties></object>
  <object id="507" name="Clerk Bellafur" type="npc" x="180" y="360" width="48" height="48"><properties><property name="kind" value="flavor_bank"/><property name="sprite" value="2"/><property name="stationary" value="true"/></properties></object>
 </objectgroup>
</map>