<?xml version="1.0" encoding="UTF-8"?>
<map version="1.10" tiledversion="1.12.2" orientation="orthogonal" renderorder="right-down" width="12" height="8" tilewidth="64" tileheight="64" infinite="0" nextlayerid="4" nextobjectid="8">
 <tileset firstgid="1" source="tileset.tsx"/>
 <layer id="1" name="Ground" width="12" height="8">
  <data encoding="csv">
2,2,2,2,2,2,2,2,2,2,2,2,
2,2,2,2,4,4,4,2,2,2,2,2,
2,2,2,4,4,1,4,4,2,2,2,2,
2,2,4,4,1,1,1,4,4,2,2,2,
2,4,4,1,1,1,1,1,4,4,2,2,
4,4,1,1,1,1,1,1,1,4,4,2,
3,3,3,3,3,3,3,3,3,3,3,3,
3,3,3,3,3,3,3,3,3,3,3,3
  </data>
 </layer>
 <layer id="2" name="Details" width="12" height="8" opacity="0.35">
  <data encoding="csv">
0,0,0,0,0,0,0,0,0,0,0,0,
0,0,0,0,0,0,0,0,0,0,0,0,
0,0,0,0,0,0,0,0,0,0,0,0,
0,0,0,0,0,0,0,0,0,0,0,0,
0,0,0,0,0,0,0,0,0,0,0,0,
0,0,0,0,0,0,0,0,0,0,0,0,
0,0,0,0,0,0,0,0,0,0,0,0,
0,0,0,0,0,0,0,0,0,0,0,0
  </data>
 </layer>
 <objectgroup id="3" name="Adventure Spots">
  <object id="1" name="South Gate" type="town" x="352" y="330" width="64" height="64"><properties><property name="action" value="rest"/></properties></object>
  <object id="2" name="Herb Garden" type="gather" x="96" y="110" width="64" height="64"><properties><property name="resource" value="rosemary"/></properties></object>
  <object id="3" name="Old Road" type="battle" x="306" y="176" width="64" height="64"><properties><property name="enemy" value="bandit"/></properties></object>
  <object id="4" name="Boar Grove" type="battle" x="552" y="126" width="64" height="64"><properties><property name="enemy" value="boar"/></properties></object>
  <object id="5" name="Riverbank" type="gather" x="470" y="368" width="64" height="64"><properties><property name="resource" value="reed"/></properties></object>
  <object id="6" name="Abandoned Vineyard" type="gather" x="690" y="250" width="64" height="64"><properties><property name="resource" value="grape"/></properties></object>
 </objectgroup>
</map>
