<?xml version='1.0' encoding='UTF-8'?>
<map version="1.10" tiledversion="1.12.2" orientation="orthogonal" renderorder="right-down" width="12" height="9" tilewidth="64" tileheight="64" infinite="0" nextlayerid="3" nextobjectid="108"><tileset firstgid="1" name="interior_tiles" tilewidth="64" tileheight="64" tilecount="6" columns="6"><image source="../world/interior_tiles.png" width="384" height="64" /></tileset><layer id="1" name="Ground" width="12" height="9"><data encoding="csv">3,3,3,3,3,3,3,3,3,3,3,3,3,1,1,1,1,1,1,1,1,1,1,3,3,1,1,1,4,4,4,4,1,1,1,3,3,1,1,1,4,4,4,4,1,1,1,3,3,1,1,1,4,4,4,4,1,1,1,3,3,1,1,1,1,1,1,1,1,1,1,3,3,1,1,1,1,1,1,1,1,1,1,3,3,1,1,1,1,1,1,1,1,1,1,3,3,3,3,3,3,1,1,3,3,3,3,3</data></layer><objectgroup id="2" name="World Objects"><object id="101" name="Guildmaster Luca" type="npc" x="350" y="215" width="48" height="48"><properties><property name="kind" value="guildmaster" /><property name="sprite" value="3" /><property name="stationary" value="true" /></properties></object><object id="102" name="Guild Contract Board" type="landmark" x="135" y="130" width="40" height="40"><properties><property name="kind" value="contract_board" /></properties></object><object id="103" name="Guild Ledger" type="landmark" x="545" y="135" width="40" height="40"><properties><property name="kind" value="guild_ledger" /></properties></object><object id="104" name="Guild Desk" type="obstacle" x="300" y="295" width="170" height="46"><properties><property name="kind" value="desk" /></properties></object><object id="105" name="Archive Shelves" type="obstacle" x="92" y="92" width="46" height="190"><properties><property name="kind" value="shelf" /></properties></object><object id="106" name="Guild Hall Door" type="door" x="350" y="505" width="68" height="40"><properties><property name="destination" value="port_felin" /><property name="spawn_x" type="int" value="235" /><property name="spawn_y" type="int" value="530" /><property name="label" value="Port Felin" /></properties></object><object id="107" name="Guild Clerk Pip" type="npc" x="180" y="330" width="48" height="48"><properties><property name="kind" value="flavor_guild" /><property name="sprite" value="1" /><property name="stationary" value="true" /></properties></object></objectgroup></map>