<?xml version='1.0' encoding='UTF-8'?>
<map version="1.10" tiledversion="1.12.2" orientation="orthogonal" renderorder="right-down" width="12" height="9" tilewidth="64" tileheight="64" infinite="0" nextlayerid="3" nextobjectid="208"><tileset firstgid="1" name="interior_tiles" tilewidth="64" tileheight="64" tilecount="6" columns="6"><image source="../world/interior_tiles.png" width="384" height="64" /></tileset><layer id="1" name="Ground" width="12" height="9"><data encoding="csv">3,3,3,3,3,3,3,3,3,3,3,3,3,2,2,2,2,2,2,2,5,5,5,3,3,2,2,2,2,2,2,2,5,5,5,3,3,2,2,2,2,2,2,2,5,5,5,3,3,2,2,2,2,2,2,2,2,2,2,3,3,2,2,2,2,2,2,2,2,2,2,3,3,2,2,2,2,2,2,2,2,2,2,3,3,2,2,2,2,2,2,2,2,2,2,3,3,3,3,3,3,2,2,3,3,3,3,3</data></layer><objectgroup id="2" name="World Objects"><object id="201" name="Bia Ironpaw" type="npc" x="345" y="230" width="48" height="48"><properties><property name="kind" value="blacksmith" /><property name="sprite" value="4" /><property name="stationary" value="true" /></properties></object><object id="202" name="Ironpaw Forge" type="landmark" x="575" y="220" width="46" height="46"><properties><property name="kind" value="forge" /></properties></object><object id="203" name="Anvil" type="obstacle" x="525" y="320" width="72" height="48"><properties><property name="kind" value="anvil" /></properties></object><object id="204" name="Work Bench" type="obstacle" x="140" y="245" width="145" height="46"><properties><property name="kind" value="bench" /></properties></object><object id="205" name="Weapon Rack" type="obstacle" x="100" y="320" width="48" height="150"><properties><property name="kind" value="rack" /></properties></object><object id="206" name="Forge Door" type="door" x="350" y="505" width="68" height="40"><properties><property name="destination" value="port_felin" /><property name="spawn_x" type="int" value="453" /><property name="spawn_y" type="int" value="530" /><property name="label" value="Port Felin" /></properties></object><object id="207" name="Masterwork Bench" type="landmark" x="185" y="248" width="54" height="40"><properties><property name="kind" value="masterwork_bench" /></properties></object></objectgroup></map>