<?xml version='1.0' encoding='UTF-8'?>
<map version="1.10" tiledversion="1.12.2" orientation="orthogonal" renderorder="right-down" width="12" height="9" tilewidth="64" tileheight="64" infinite="0" nextlayerid="3" nextobjectid="408"><tileset firstgid="1" name="interior_tiles" tilewidth="64" tileheight="64" tilecount="6" columns="6"><image source="../world/interior_tiles.png" width="384" height="64" /></tileset><layer id="1" name="Ground" width="12" height="9"><data encoding="csv">3,3,3,3,3,3,3,3,3,3,3,3,3,2,2,2,2,2,2,2,2,2,2,3,3,2,2,2,2,2,2,2,2,2,2,3,3,2,2,2,4,4,4,4,2,2,2,3,3,2,2,2,4,4,4,4,2,2,2,3,3,2,2,2,2,2,2,2,2,2,2,3,3,2,2,2,2,2,2,2,2,2,2,3,3,2,2,2,2,2,2,2,2,2,2,3,3,3,3,3,3,2,2,3,3,3,3,3</data></layer><objectgroup id="2" name="World Objects"><object id="401" name="Neri the Merchant" type="npc" x="250" y="225" width="48" height="48"><properties><property name="kind" value="merchant" /><property name="sprite" value="3" /><property name="stationary" value="true" /></properties></object><object id="402" name="Saffron" type="npc" x="465" y="225" width="48" height="48"><properties><property name="kind" value="apothecary" /><property name="sprite" value="3" /><property name="stationary" value="true" /></properties></object><object id="403" name="Neri Counter" type="obstacle" x="130" y="290" width="210" height="48"><properties><property name="kind" value="counter" /></properties></object><object id="404" name="Apothecary Counter" type="obstacle" x="425" y="290" width="180" height="48"><properties><property name="kind" value="counter" /></properties></object><object id="405" name="Crate Stack" type="obstacle" x="110" y="360" width="78" height="82"><properties><property name="kind" value="crates" /></properties></object><object id="406" name="Mercato Door" type="door" x="350" y="505" width="68" height="40"><properties><property name="destination" value="port_felin" /><property name="spawn_x" type="int" value="453" /><property name="spawn_y" type="int" value="725" /><property name="label" value="Port Felin" /></properties></object><object id="407" name="Price Slate" type="landmark" x="555" y="360" width="44" height="44"><properties><property name="kind" value="price_slate" /></properties></object></objectgroup></map>