<?xml version='1.0' encoding='UTF-8'?>
<map version="1.10" tiledversion="1.12.2" orientation="orthogonal" renderorder="right-down" width="34" height="20" tilewidth="64" tileheight="64" infinite="0" nextlayerid="3" nextobjectid="39">
 <tileset firstgid="1" name="world_tiles" tilewidth="64" tileheight="64" tilecount="6" columns="6">
  <image source="../world/world_tiles.png" width="384" height="64" />
 </tileset>
 <layer id="1" name="Ground" width="34" height="20">
  <data encoding="csv">6,6,6,6,6,6,6,6,6,6,6,6,6,6,6,6,6,6,3,3,3,6,6,6,6,6,6,6,6,6,6,6,6,6,6,6,6,6,6,6,6,6,6,6,6,6,6,6,6,6,6,6,3,3,3,6,6,6,6,6,6,6,6,6,6,6,6,6,6,1,1,1,1,1,1,1,1,1,1,6,6,6,6,6,1,1,3,3,3,6,6,6,6,6,6,1,4,4,4,4,4,6,6,1,1,1,1,1,1,1,1,1,1,6,1,1,1,6,1,1,3,3,3,6,6,6,6,6,1,1,4,4,4,4,4,6,6,1,1,1,1,1,1,1,1,1,1,1,1,1,1,1,1,1,3,3,3,6,6,6,6,1,1,1,4,4,4,4,4,6,6,1,1,1,1,1,1,1,1,1,1,1,1,1,1,1,1,1,3,3,3,1,1,1,1,1,1,1,4,4,4,4,4,6,6,1,2,2,2,2,2,2,2,2,1,1,1,1,1,1,1,1,3,3,3,1,1,1,1,1,1,1,4,4,4,4,4,6,6,1,2,2,2,2,2,2,2,2,1,1,1,1,1,1,1,1,3,3,3,1,1,1,1,1,1,1,1,4,1,1,6,6,6,1,2,2,2,2,2,2,2,4,4,4,4,4,4,4,4,4,2,2,2,4,4,4,4,4,4,4,4,4,4,4,4,6,6,1,2,2,2,2,2,2,2,2,1,1,4,1,1,1,1,1,3,3,3,1,1,1,1,1,4,1,1,1,1,1,1,6,6,1,2,2,2,2,2,2,2,2,1,1,4,1,5,5,5,1,3,3,3,1,1,1,1,1,4,1,1,1,1,6,6,6,6,1,2,2,2,2,2,2,2,2,1,1,4,1,5,5,5,1,3,3,3,1,6,6,6,6,4,1,1,1,1,1,1,6,6,1,1,1,1,1,1,1,1,1,1,1,4,1,5,5,5,1,3,3,3,6,6,6,1,1,4,1,1,1,6,6,6,6,6,1,1,1,1,1,1,1,1,1,1,1,4,4,5,5,5,4,3,3,3,6,6,6,1,1,4,1,1,1,1,1,1,6,6,1,1,1,1,1,1,1,1,1,1,1,1,1,1,1,1,1,3,3,3,1,6,6,6,1,4,1,1,1,1,1,1,6,6,1,1,1,1,1,1,1,1,1,1,1,1,1,1,1,1,1,3,3,3,1,6,6,4,4,4,4,4,1,1,1,1,6,6,6,6,6,6,6,6,6,6,6,6,6,6,6,6,6,6,6,3,3,3,6,6,6,1,1,4,1,1,6,6,6,6,6,6,6,6,6,6,6,6,6,6,6,6,6,6,6,6,6,6,6,3,3,3,6,6,6,6,6,1,1,1,6,6,6,6,6,6,6,6,6,6,6,6,6,6,6,6,6,6,6,6,6,6,6,3,3,3,6,6,6,6,6,6,6,6,6,6,6,6,6,6,6,6,6,6,6,6,6,6,6,6,6,6,6,6,6,6,6,3,3,3,6,6,6,6,6,6,6,6,6,6,6,6,6</data>
 </layer>
 <objectgroup id="2" name="World Objects">
  <object id="1" name="Guild Hall" type="building" x="160" y="390" width="150" height="100">
   <properties>
    <property name="kind" value="guild" />
    <property name="blocking" value="true" />
   </properties>
  </object>
  <object id="2" name="Blacksmith" type="building" x="385" y="390" width="135" height="100">
   <properties>
    <property name="kind" value="smith" />
    <property name="blocking" value="true" />
   </properties>
  </object>
  <object id="3" name="Warm Saucer Inn" type="building" x="160" y="570" width="150" height="115">
   <properties>
    <property name="kind" value="inn" />
    <property name="blocking" value="true" />
   </properties>
  </object>
  <object id="4" name="Mercato" type="building" x="385" y="570" width="135" height="115">
   <properties>
    <property name="kind" value="market" />
    <property name="blocking" value="true" />
   </properties>
  </object>
  <object id="5" name="Guildmaster Luca" type="npc" x="250" y="530" width="48" height="48">
   <properties>
    <property name="sprite" value="3" />
    <property name="kind" value="guildmaster" />
   </properties>
  </object>
  <object id="6" name="Bia Ironpaw" type="npc" x="455" y="525" width="48" height="48">
   <properties>
    <property name="sprite" value="4" />
    <property name="kind" value="blacksmith" />
   </properties>
  </object>
  <object id="7" name="Neri the Merchant" type="npc" x="465" y="710" width="48" height="48">
   <properties>
    <property name="sprite" value="3" />
    <property name="kind" value="merchant" />
   </properties>
  </object>
  <object id="8" name="Saffron" type="npc" x="300" y="720" width="48" height="48">
   <properties>
    <property name="sprite" value="3" />
    <property name="kind" value="apothecary" />
   </properties>
  </object>
  <object id="9" name="Rosemary Patch" type="resource" x="875" y="455" width="46" height="46">
   <properties>
    <property name="resource" value="rosemary" />
   </properties>
  </object>
  <object id="10" name="Oak Stand" type="resource" x="780" y="235" width="46" height="46">
   <properties>
    <property name="resource" value="oak_log" />
   </properties>
  </object>
  <object id="11" name="Iron Vein" type="resource" x="1395" y="300" width="46" height="46">
   <properties>
    <property name="resource" value="iron_ore" />
   </properties>
  </object>
  <object id="12" name="River Reeds" type="resource" x="1085" y="565" width="46" height="46">
   <properties>
    <property name="resource" value="reed" />
   </properties>
  </object>
  <object id="13" name="Vine Rows" type="resource" x="945" y="760" width="46" height="46">
   <properties>
    <property name="resource" value="grape" />
   </properties>
  </object>
  <object id="14" name="Road Bandit" type="enemy" x="910" y="325" width="50" height="50">
   <properties>
    <property name="enemy" value="bandit" />
    <property name="sprite" value="5" />
   </properties>
  </object>
  <object id="15" name="Bandit Scout" type="enemy" x="1010" y="250" width="50" height="50">
   <properties>
    <property name="enemy" value="bandit" />
    <property name="sprite" value="5" />
   </properties>
  </object>
  <object id="16" name="Bristleback" type="enemy" x="960" y="845" width="50" height="50">
   <properties>
    <property name="enemy" value="boar" />
    <property name="sprite" value="6" />
   </properties>
  </object>
  <object id="17" name="Start" type="spawn" x="330" y="655" width="32" height="32" />
  <object id="18" name="South Gate" type="landmark" x="610" y="655" width="36" height="36">
   <properties>
    <property name="kind" value="gate" />
   </properties>
  </object>
  <object id="19" name="Stone Bridge" type="landmark" x="1180" y="520" width="36" height="36">
   <properties>
    <property name="kind" value="bridge" />
   </properties>
  </object>
  <object id="20" name="Mina Whiskerpot" type="npc" x="205" y="710" width="48" height="48">
   <properties>
    <property name="sprite" value="4" />
    <property name="kind" value="innkeeper" />
   </properties>
  </object>
  <object id="21" name="Northbank Fishing Ripples" type="resource" x="1095" y="345" width="46" height="46">
   <properties>
    <property name="resource" value="river_dace" />
   </properties>
  </object>
  <object id="22" name="Old Quay Fishing Ripples" type="resource" x="1095" y="735" width="46" height="46">
   <properties>
    <property name="resource" value="river_dace" />
   </properties>
  </object>
  <object id="23" name="Eastroad Marker" type="landmark" x="1548" y="530" width="36" height="36">
   <properties>
    <property name="kind" value="eastroad" />
   </properties>
  </object>
  <object id="24" name="Quarry Hut" type="building" x="1760" y="215" width="150" height="92">
   <properties>
    <property name="kind" value="quarry_hut" />
    <property name="blocking" value="true" />
   </properties>
  </object>
  <object id="25" name="Quarrymaster Gesso" type="npc" x="1805" y="325" width="48" height="48">
   <properties>
    <property name="kind" value="quarrymaster" />
    <property name="sprite" value="2" />
   </properties>
  </object>
  <object id="26" name="Rich Iron Vein" type="resource" x="1910" y="325" width="46" height="46">
   <properties>
    <property name="resource" value="rich_iron" />
   </properties>
  </object>
  <object id="27" name="Deep Iron Vein" type="resource" x="2030" y="390" width="46" height="46">
   <properties>
    <property name="resource" value="rich_iron" />
   </properties>
  </object>
  <object id="28" name="Quarry Face" type="resource" x="1970" y="245" width="46" height="46">
   <properties>
    <property name="resource" value="rich_iron" />
   </properties>
  </object>
  <object id="29" name="Old Moss Oak" type="resource" x="1650" y="745" width="46" height="46">
   <properties>
    <property name="resource" value="old_oak" />
   </properties>
  </object>
  <object id="30" name="Ancient Oak" type="resource" x="1785" y="910" width="46" height="46">
   <properties>
    <property name="resource" value="old_oak" />
   </properties>
  </object>
  <object id="31" name="Southwood Oak" type="resource" x="1870" y="1030" width="46" height="46">
   <properties>
    <property name="resource" value="old_oak" />
   </properties>
  </object>
  <object id="32" name="Fox Brigand" type="enemy" x="1665" y="485" width="50" height="50">
   <properties>
    <property name="enemy" value="fox" />
    <property name="sprite" value="7" />
   </properties>
  </object>
  <object id="33" name="Fox Highwayman" type="enemy" x="1780" y="600" width="50" height="50">
   <properties>
    <property name="enemy" value="fox" />
    <property name="sprite" value="7" />
   </properties>
  </object>
  <object id="34" name="Fox Poacher" type="enemy" x="1855" y="810" width="50" height="50">
   <properties>
    <property name="enemy" value="fox" />
    <property name="sprite" value="7" />
   </properties>
  </object>
  <object id="35" name="Redtail Captain" type="enemy" x="1985" y="610" width="50" height="50">
   <properties>
    <property name="enemy" value="fox_captain" />
    <property name="sprite" value="7" />
   </properties>
  </object>
  <object id="36" name="Mosswood Bristleback" type="enemy" x="1700" y="1015" width="50" height="50">
   <properties>
    <property name="enemy" value="boar" />
    <property name="sprite" value="6" />
   </properties>
  </object>
  <object id="37" name="Old Quarry" type="landmark" x="2000" y="470" width="36" height="36">
   <properties>
    <property name="kind" value="quarry" />
   </properties>
  </object>
  <object id="38" name="Guild Contract Board" type="landmark" x="108" y="525" width="36" height="36">
   <properties>
    <property name="kind" value="contract_board" />
   </properties>
  </object>
 </objectgroup>
</map>