<?xml version='1.0' encoding='UTF-8'?>
<map version="1.10" tiledversion="1.12.2" orientation="orthogonal" renderorder="right-down" width="12" height="9" tilewidth="64" tileheight="64" infinite="0" nextlayerid="3" nextobjectid="309"><tileset firstgid="1" name="interior_tiles" tilewidth="64" tileheight="64" tilecount="6" columns="6"><image source="../world/interior_tiles.png" width="384" height="64" /></tileset><layer id="1" name="Ground" width="12" height="9"><data encoding="csv">3,3,3,3,3,3,3,3,3,3,3,3,3,1,1,1,1,1,1,1,1,1,1,3,3,1,4,4,4,1,1,1,1,1,1,3,3,1,4,4,4,1,1,1,1,1,1,3,3,1,4,4,4,1,1,1,1,1,1,3,3,1,1,1,1,1,1,1,1,1,1,3,3,1,1,1,1,1,1,1,1,1,1,3,3,1,1,1,1,1,1,1,1,1,1,3,3,3,3,3,3,1,1,3,3,3,3,3</data></layer><objectgroup id="2" name="World Objects"><object id="301" name="Mina Whiskerpot" type="npc" x="315" y="220" width="48" height="48"><properties><property name="kind" value="innkeeper" /><property name="sprite" value="4" /><property name="stationary" value="true" /></properties></object><object id="302" name="Warm Saucer Hearth" type="landmark" x="570" y="230" width="48" height="48"><properties><property name="kind" value="cook_hearth" /></properties></object><object id="303" name="Guest Bed" type="landmark" x="565" y="365" width="54" height="72"><properties><property name="kind" value="inn_bed" /></properties></object><object id="304" name="Inn Counter" type="obstacle" x="255" y="285" width="220" height="44"><properties><property name="kind" value="counter" /></properties></object><object id="305" name="Table" type="obstacle" x="140" y="355" width="92" height="70"><properties><property name="kind" value="table" /></properties></object><object id="306" name="Table" type="obstacle" x="320" y="365" width="92" height="70"><properties><property name="kind" value="table" /></properties></object><object id="307" name="Warm Saucer Door" type="door" x="350" y="505" width="68" height="40"><properties><property name="destination" value="port_felin" /><property name="spawn_x" type="int" value="235" /><property name="spawn_y" type="int" value="725" /><property name="label" value="Port Felin" /></properties></object><object id="308" name="Purrcival the Fiddler" type="npc" x="155" y="145" width="48" height="48"><properties><property name="kind" value="flavor_inn" /><property name="sprite" value="2" /><property name="stationary" value="true" /></properties></object></objectgroup></map>